X: 36724
T: Sheep In The Boat, The
R: jig
M: 6/8
K: Edorian
|:BEF ~G2E|FED ~d2f|edB BAF|AFE FED|
BEF ~G2E|FED ~d2f|edB BAF|AFE EF/G/A:|
|:Bee efe|dBc daf|edB BAF|AFE FED|
[1 ~E2e efe|dBc def|edB BAF|AFE EF/G/A:|
[2 BEF ~G2E|FED ~d2f|edB BAF|AFE EF/G/A||

